X:1
T:Title
%%score ( 1 2 ) { 3 | 4 }
L:1/8
Q:1/4=108
M:4/4
K:C
V:1 treble nm="Grand Piano, Soprano"
V:2 treble 
V:3 bass nm="Choir Pad, I Hear a Voice Van De Water"
V:4 bass 
V:1
 [Fc]2 [Fd]2 [F_B]2 [Fc]2 | [FA]2 [CF]2- [CF]D [CF]2 | [EG]2 [FA]2 [F_B]2 [Fc]2 | %3
w: By~Beardsley~Van~de~Water * * *|||
 [FA]2 [FA]2- [FA][FG] [EG]2 | [EG]2 [FG]2- [FG][FA] [FG]2 | [Fd]2 [Ec]2- [Ec]E [EG]2 | %6
w: |||
 [EG]2 [FG]2- [FG][FA] [FG]2 | [Fd]2 [Ec]2- [Ec]E [EG]2 | z8 | z8 |[M:6/8] z6 | z2 c- c2 z | z6 | %13
w: |||||||
 z6 | z6 | z6 | z2 A z3 | z6 | z6 |] %19
w: ||||||
V:2
 x8 | x8 | x8 | x8 | x8 | x8 | x8 | x8 | C2 [EA]4 [EG]2- | [EG]2 [E_B]6- | %10
[M:6/8] [EB]2 [FA] [F^G][FA][Ec]- | [Ec][Ec]F- F2- [FA]- | [FA]2 [FA] [F^G][FA][Ec]- | %13
 [Ec][Ec][_Ec]- [Ec]3- | [Ec][_EF][DF]- [DF][F_B][^Fd]- | [Fd][^Fc][Ac]- [Ac]2 [G_B]- | %16
 [GB]2 F- [F^G-]/G/[FA][E_B]- | [EB][CE][CF]- [CF]3- | [CF]6 |] %19
V:3
 A,2 _B,2 G,2 A,2 | C2 A,2- A,_B, A,2 | C2 C2 C2 C2 | C2 C2- CB, C2 | C2[K:bass] B,2- B,C B,2 | %5
 B,2[K:treble] C2- CG, C2 | C2[K:bass] B,2- B,C B,2 | B,2[K:treble] C2- CG, C2 | %8
 C2 C4[K:bass] _B,2- | B,2 G,4 C2- |[M:6/8] C2 C B,C_B,- | B,_B,A,- A,2[K:treble] C- | %12
 C2 C B,C[K:bass]_B,- | B,_B,A,- A,3- | A,A,_B,- B,/ z/[K:treble] DD- | DD_E- E2 D- | %16
 D2 C[K:bass] B,CG,- | G,_B,A,- A,3- | A,6 |] %19
V:4
 F,2 F,2 F,2 F,2 | F,2 F,2- F,F, F,2 | C,2 F,2 G,2 A,2 | F,2 D,2- D,D, C,2 | C,2 G,2- G,G, G,2 | %5
 G,2 C,2- C,C, C,2 | C,2 G,2- G,G, G,2 | G,2 C,2- C,C, C,2 | C,2 C,4 C,2- | C,2 C,6- | %10
[M:6/8] C,2 F, F,F,G,- | G,G,F,- F,3- | F,2 F, F,F,G,- | G,G,F,- F,3- | F, .F,2 z _B,A,- | %15
 A,A,G,- G,2 G,,- | G,,2 C,- C,/ z/ C,C,- | C,C,F,- F,3- | F,6 |] %19

